X:1
T:Title
%%score { ( 1 3 ) | ( 2 4 ) }
L:1/8
Q:1/4=100
M:4/4
K:A
V:1 treble nm="Grand Piano"
V:3 treble 
V:2 bass 
V:4 bass 
V:1
 [CE]2 [CA]2 [DF]2 [FB]2 | A>G F>G [CA]2 [CE]2 | [CE]2 [Ec]2 [DF]2 [Fd]2 | cB [A,EA]2 [EB]4 | %4
w: W.~A.~Ogden * * *||||
 [CE]2 [CA]2 [DF]2 [FB]2 | A>G F>G [CA]2 [CE]2 | [DF]2 [Fd]2 cB[A,A]-[A,FA] | A2 G2 [CA]4 | %8
w: ||||
 B>B B>B G2 F>E | A2 B2 c2 d2 | e>e e>e c2 A2 | B2 ^d2 [Ge]4 | [Ec]2 [Ec]2 cB [A,EA]2 | %13
w: |||||
 [A,FA]2 [A,FA]2 [FA]G F2 | E>A A>B c2 B2 | [CA]6 z2 |] %16
w: |||
V:2
 [A,,A,]2 [A,,A,]2 [D,A,]2 [D,D]2 | [E,B,D]>[E,B,D] [E,B,D]>[E,B,D] [A,,A,]2 [A,,A,]2 | %2
 [A,,A,]2 [A,,A,]2 [D,A,]2 [D,A,]2 | A,2 z2 z4 | [A,,A,]2 [A,,A,]2 [D,A,]2 [D,D]2 | %5
 [E,B,D]>[E,B,D] [E,B,D]>[E,B,D] [A,,A,]2 [A,,A,]2 | z4 A,2 z2 | [E,CE]2 [E,B,D]2 [A,,A,]4 | %8
 [E,G,D]>[E,G,D] [E,G,D]>[E,G,D] [E,B,D]2 [E,G,D]>[E,G,D] | z4 [A,E]4 | %10
 [A,CA]>[A,CA] [A,CA]>[A,CA] [A,EA]2 [CE]2 | [B,EG]2 [B,A]2[K:bass] [E,B,]4 | z4 A,2 z2 | %13
 D,2 D,2 z E [D,A,D]2 | [E,A,C]>[E,A,C] [F,A,C]>[F,A,D] [E,A,E]2 [E,G,D]2 | [A,,A,]6 z2 |] %16
V:3
 x8 | x8 | x8 | E2 z2 z4 | x8 | x8 | z4 E2 .E2 | x8 | x8 | E4 z4 | x8 | x8 | z4 E2 z2 | x8 | x8 | %15
 x8 |] %16
V:4
 x8 | x8 | x8 | A,,B,, C,2 [E,G,]4 | x8 | x8 | [D,A,]2 [D,A,]2 A,,B,,C,D, | x8 | x8 | %9
 [C,A,]2 [E,G,]2 z2 B,2 | x8 | x4[K:bass] x4 | [A,,A,]2 [A,,A,]2 A,,B,, C,2 | z4 [D,A,]2 z2 | x8 | %15
 x8 |] %16

